src/pos-icons/reply-all-outline.svg

<svg height="24" viewBox="0 0 24 24" width="24" xmlns="http://www.w3.org/2000/svg"><path d="m11 9.8v.9l1.7.2c2.6.4 4.5 1.4 5.9 2.7-1.7-.5-3.5-.8-5.6-.8h-2v1.3l-2.2-2.1zm2-4.8-7 7 7 7v-4.1c5 0 8.5 1.6 11 5.1-1-5-4-10-11-11m-6-1v-3l-7 7 7 7v-3l-4-4"/></svg>

<?xml version="1.0" encoding="UTF-8"?><!DOCTYPE svg PUBLIC "-//W3C//DTD SVG 1.1//EN" "http://www.w3.org/Graphics/SVG/1.1/DTD/svg11.dtd"><svg xmlns="http://www.w3.org/2000/svg" xmlns:xlink="http://www.w3.org/1999/xlink" version="1.1" id="mdi-reply-all-outline" width="24" height="24" viewBox="0 0 24 24"><path d="M11,9.8V10.7L12.7,10.9C15.3,11.3 17.2,12.3 18.6,13.6C16.9,13.1 15.1,12.8 13,12.8H11V14.1L8.8,12L11,9.8M13,5L6,12L13,19V14.9C18,14.9 21.5,16.5 24,20C23,15 20,10 13,9M7,8V5L0,12L7,19V16L3,12" /></svg>
